X: 431
T: Mein Shtet'l Yass
R: freylach
M: 2/4
L: 1/8
K: F
|: "F"F4 | zc BA | c4- \
| c4 | cB BA | cB BA \
|1 =B c2 d | _ed c=B | "C7"c4 | zCDE :|
|2 "F"c3A | AG FG | "A7"A4- | A4 \
|: "Dm"A2 ^GF | ED EF | zA ^GF \
| Ad A2 | "Dm"A2 ^GF | ED EF
| "Dm"A2 "E7"^GF |1 "A7"EF "Dm"D2 \
:|2 "A7"EF "Dm"D"C7"(3C/D/E/ | "F"F4 | zABA | "C7"c4 | zcdc \
| "F"f4- | f4- | f4- | f4 |
K: Fmix_G
|: "F"c2 BA | cd (3edc | c2 BA \
| =B/d/c A2 | "F"c2 BA | cd (3edc \
|1 "F"AF "Ebm"(3BAG | "F"F2 z(3A/B/=B/ \
:|2 "F"AF "Ebm"(3GFE | "F"F3 z |]
